X:1
T:Margot labourez les vignes
T:Margot labourez les vignes
%%score [ 1 2 3 4 ]
L:1/8
M:2/2
K:G
V:1 treble nm="Alto" snm="A."
V:2 treble-8 transpose=-12 nm="Tenor" snm="T."
V:3 treble-8 transpose=-12 nm="Baritone" snm="Bar."
V:4 bass nm="Bass" snm="B."
V:1
 D4 F4 | G2 G2 G2 F2 | G4 F4 | B2 B2 A2 G2 | F2 F2 E4 | F4 F4 | G2 G2 E2 D2 | ^C2 D2 C4 | D8- | %9
w: Mar- got|la- bou- rez les|vi- gnes,|vi- gnes, vi- gnes,|vi- gno- let,|Mar- got|la- bou- rez les|vi- gnes bien|tôt.|
 D8 | z8 | z8 | z4 A4- | A2 A2 B2 A2 | G2 F2 G4- | G4 F4 | E8 | F4 F4 | B4 E2 E2 | E2 A2 ^G4 | %20
w: |||En|* re- ve- nant|de Lor- rai-|* ne,|Mar-|got, ren-|con- trai trois|ca- pi- tai-|
 A4 F2 E2 | F2 G2 F2 E2 | F4 G4- | G4 F4 | E2 c2 A2 B2 | c2 B2 A4 | F8- | F8 | z4 A2 A2 | B4 A4 | %30
w: nes, vi- gnes,|vi- gnes, vi- gno-|let, Mar-|* got|la- bou- rez les|vi- gnes bien|tôt.||Ils m'ont|sa- lu-|
 G4 G4 | E4 G4 | F4 E4 | F4 A4 | B2 B2 B2 B2 | A4 F4 | E2 ^D2 E2 F2 | G2 G2 G4 | F4 F4 | %39
w: é vi-|lai- ne,|Mar- got,|Je suis|leurs fie- vres quar-|tai- nes,|vi- gnes, vi- gnes,|vi- gno- let,|Mar- got|
 G2 G2 E2 D2 | ^C2 D2 C4 | D4 F2 F2 | G2 G2 E2 D2 | ^C2 D2 C4 | D8- | D8 |] %46
w: la- bou- rez les|vi- gnes bien|tôt. Mar- got|la- bou- rez les|vi- gnes bien|tôt.||
V:2
 A4 d4 | e2 e2 d2 d2 | d4 d4 | d2 d2 d2 d2 | d2 d2 ^c4 | d4 d4 | e2 d2 c2 B2 | A2 F2 A4 | F8- | %9
w: Mar- got|la- bou- rez les|vi- gnes,|vi- gnes, vi- gnes,|vi- gno- let,|Mar- got|la- bou- rez les|vi- gnes bien|tôt.|
 F8 | z8 | z8 | z8 | d6 d2 | e2 d2 ^c2 B2 | ^c2 B2 d4- | d2 ^cB c4 | d4 z2 A2 | d4 G2 G2 | %19
w: ||||En re-|ve- nant de Lor-|rai- ne, Mar-||got, ren-|con- trai trois|
 c2 d2 e4 | ^c4 d2 c2 | d2 e2 d2 B2 | d8 | d6 d2 | B2 e2 d2 d2 | e2 d2 ^c4 | d8- | d8 | z8 | %29
w: ca- pi- tai-|nes, vi- gnes,|vi- gnes, vi- gno-|let,|Mar- got|la- bou- rez les|vi- gnes bien|tôt.|||
 d6 d2 | e4 d4 | c2 c2 e4 | d4 ^c4 | d4 f2 f2 | g2 g2 g2 g2 | f4 d4 | B2 B2 B2 d2 | e2 e2 d4 | %38
w: Ils m'ont|sa- lu-|é vi- lai-|ne, Mar-|got, Je suis|leurs fie- vres quar-|tai- nes,|vi- gnes, vi- gnes,|vi- gno- let,|
 d6 d2 | e2 d2 c2 A2 | A2 F2 A4 | A4 d2 d2 | e2 d2 c2 A2 | A2 F2 A4 | F8- | F8 |] %46
w: Mar- got|la- bou- rez les|vi- gnes bien|tôt. Mar- got|la- bou- rez les|vi- gnes bien|tot.|_|
V:3
 D4 A4 | c2 c2 B2 A2 | B4 A4 | G2 G2 F2 B2 | A2 A2 A4 | A6 A2 | c2 B2 G2 F2 | E2 D2 E4 | D4 A4- | %9
w: Mar- got|la- bou- rez les|vi- gnes,|vi- gnes, vi- gnes,|vi- gno- let,|Mar- got|la- bou- rez les|vi- gnes bien|tôt. En|
 A2 A2 B2 A2 | G2 F2 G4- | G4 F4 | E8 | F8 | z8 | z8 | z8 | A4 d4 | G4 B4 | A2 A2 B4 | A4 A2 A2 | %21
w: * re- ve- nant|de Lor- rai-|* ne,|Mar-|got,||||ren- con-|trai trois|ca- pi- tai-|nes, vi- gnes,|
 A2 c2 A2 ^G2 | A4 B4- | B4 A4 | G2 G2 F2 G2 | G2 G2 E4 | D4 A2 A2 | B4 A4 | G4 F4 | G4 A4 | B8 | %31
w: vi- gnes, vi- gno-|let, Mar-|* got|la- bou- rez les|vi- gnes bien|tôt. Ils m'ont|sa- lu-|é vi-|lai- ne,|Mar-|
 G4 z2 G2 | B2 d2 A4 | A4 d2 d2 | d2 d2 d2 d2 | d4 A4 | G2 F2 G2 A2 | c2 c2 B4 | A6 A2 | %39
w: got, vi-|lai- ne, Mar-|got, Je suis|leurs fie- vres quar-|tai- nes,|vi- gnes, vi- gnes,|vi- gno- let,|Mar- got|
 c2 B2 G2 F2 | E2 D2 E4 | F4 A2 A2 | c2 B2 G2 F2 | E2 D2 E4 | D8- | D8 |] %46
w: la- bou- rez les|vi- gnes bien|tôt. Mar- got|la- bou- rez les|vi- gnes bien|tôt.||
V:4
 D,4 D,4 | C,2 C,2 G,2 D,2 | G,4 D,4 | G,,2 G,,2 D,2 G,,2 | D,2 D,2 A,,4 | D,4 D,4 | %6
w: Mar- got|la- bou- rez les|vi- gnes,|vi- gnes, vi- gnes,|vi- gno- let,|Mar- got|
 C,2 G,,2 C,2 D,2 | A,,2 B,,2 A,,4 | D,8 | D,6 D,2 | E,2 D,2 C,2 B,,2 | C,2 B,,2 D,4- | %12
w: la- bou- rez les|vi- gnes bien|tôt.|En re-|ve- nant de Lor-|rai- ne, Mar-|
 D,2 ^C,B,, C,4 | D,8 | z8 | z8 | A,,4 A,4 | D,8 | z4 E,4 | A,,2 =F,2 E,4 | A,,4 D,2 A,,2 | %21
w: |got,|||ren con|trai|trois|ca- pi- tai-|nes, vi- gnes,|
 D,2 C,2 D,2 E,2 | D,4 G,4- | G,4 D,4 | E,2 C,2 D,2 G,,2 | C,2 G,,2 A,,4 | D,8 | z4 D,2 D,2 | %28
w: vi- gnes, vi- gno-|let, Mar-|* got|la- bou- rez les|vi- gnes bien|tôt.|Ils m'ont|
 E,4 D,4 | G,,2 G,2 F,4 | E,4 G,4 | C,8 | z8 | D,4 D,4 | G,2 G,2 G,2 G,2 | D,4 D,4 | %36
w: sa- lu|é vi- lai-|ne Mar-|got||Je suis|leurs fie vres quar-|tai- nes,|
 E,2 B,,2 E,2 D,2 | C,2 C,2 G,4 | D,4 D,4 | C,2 G,,2 C,2 D,2 | A,,2 B,,2 A,,4 | D,4 D,2 D,2 | %42
w: vi- gnes, vi- gnes,|vi- gno- let,|Mar- got|la- bou- rez les|vi- gnes bien|tôt. Mar- got|
 C,2 G,,2 C,2 D,2 | A,,2 B,,2 A,,4 | D,8- | D,8 |] %46
w: la- bou- rez les|vi- gnes bien|tôt.|_|

